src/assets/icons/remotes/slack.svg

<svg width="24" height="24" viewBox="0 0 24 24" fill="currentColor" xmlns="http://www.w3.org/2000/svg">
<path d="M5.04107 15.1661C5.04107 16.5536 3.90536 17.6893 2.51786 17.6893C1.13036 17.6893 0 16.5536 0 15.1661C0 13.7786 1.13571 12.6429 2.52321 12.6429H5.04643V15.1661H5.04107ZM6.31071 15.1661C6.31071 13.7786 7.44643 12.6429 8.83393 12.6429C10.2214 12.6429 11.3571 13.7786 11.3571 15.1661V21.4768C11.3571 22.8643 10.2214 24 8.83393 24C7.44643 24 6.31071 22.8643 6.31071 21.4768V15.1661ZM8.83393 5.04107C7.44643 5.04107 6.31071 3.90536 6.31071 2.51786C6.31071 1.13036 7.44643 0 8.83393 0C10.2214 0 11.3571 1.13571 11.3571 2.52321V5.04643H8.83393V5.04107ZM8.83393 6.31071C10.2214 6.31071 11.3571 7.44643 11.3571 8.83393C11.3571 10.2214 10.2214 11.3571 8.83393 11.3571H2.52321C1.13571 11.3571 0 10.2214 0 8.83393C0 7.44643 1.13571 6.31071 2.52321 6.31071H8.83393ZM18.9589 8.83393C18.9589 7.44643 20.0946 6.31071 21.4821 6.31071C22.8696 6.31071 24 7.44643 24 8.83393C24 10.2214 22.8643 11.3571 21.4768 11.3571H18.9536V8.83393H18.9589ZM17.6893 8.83393C17.6893 10.2214 16.5536 11.3571 15.1661 11.3571C13.7786 11.3571 12.6429 10.2214 12.6429 8.83393V2.52321C12.6429 1.13571 13.7786 0 15.1661 0C16.5536 0 17.6893 1.13571 17.6893 2.52321V8.83393ZM15.1661 18.9589C16.5536 18.9589 17.6893 20.0946 17.6893 21.4821C17.6893 22.8696 16.5536 24 15.1661 24C13.7786 24 12.6429 22.8643 12.6429 21.4768V18.9536H15.1661V18.9589ZM15.1661 17.6893C13.7786 17.6893 12.6429 16.5536 12.6429 15.1661C12.6429 13.7786 13.7786 12.6429 15.1661 12.6429H21.4768C22.8643 12.6429 24 13.7786 24 15.1661C24 16.5536 22.8643 17.6893 21.4768 17.6893H15.1661Z"/>
</svg>

<svg xmlns="http://www.w3.org/2000/svg" width="24" height="24" fill="currentColor" viewBox="0 0 24 24"><path d="M5.041 15.166a2.53 2.53 0 0 1-2.523 2.523A2.526 2.526 0 0 1 0 15.166a2.53 2.53 0 0 1 2.523-2.523h2.523v2.523zm1.27 0a2.53 2.53 0 0 1 2.523-2.523 2.53 2.53 0 0 1 2.523 2.523v6.31A2.53 2.53 0 0 1 8.834 24a2.53 2.53 0 0 1-2.523-2.523zM8.834 5.041A2.53 2.53 0 0 1 6.31 2.518 2.526 2.526 0 0 1 8.834 0a2.53 2.53 0 0 1 2.523 2.523v2.523H8.834zm0 1.27a2.53 2.53 0 0 1 2.523 2.523 2.53 2.53 0 0 1-2.523 2.523h-6.31A2.53 2.53 0 0 1 0 8.834 2.53 2.53 0 0 1 2.523 6.31zm10.125 2.523a2.53 2.53 0 0 1 2.523-2.523A2.526 2.526 0 0 1 24 8.834a2.53 2.53 0 0 1-2.523 2.523h-2.523V8.834zm-1.27 0a2.53 2.53 0 0 1-2.523 2.523 2.53 2.53 0 0 1-2.523-2.523v-6.31A2.53 2.53 0 0 1 15.166 0a2.53 2.53 0 0 1 2.523 2.523zm-2.523 10.125a2.53 2.53 0 0 1 2.523 2.523A2.526 2.526 0 0 1 15.166 24a2.53 2.53 0 0 1-2.523-2.523v-2.523h2.523zm0-1.27a2.53 2.53 0 0 1-2.523-2.523 2.53 2.53 0 0 1 2.523-2.523h6.31A2.53 2.53 0 0 1 24 15.166a2.53 2.53 0 0 1-2.523 2.523z"/></svg>
